src/icons/cloudwatch-config.svg

<?xml version="1.0" encoding="UTF-8"?>
<svg xmlns="http://www.w3.org/2000/svg" xmlns:xlink="http://www.w3.org/1999/xlink" width="24" height="32" viewBox="0 0 24 32" version="1.1">
<g id="surface1">
<path style=" stroke:none;fill-rule:evenodd;fill:rgb(29.411766%,38.039216%,17.254902%);fill-opacity:1;" d="M 7.492188 10.539062 L 0 10.539062 L 0 18.902344 L 7.492188 18.902344 L 11.175781 22.421875 L 24 22.421875 L 24 14.054688 L 11.175781 14.054688 Z M 11.175781 23.425781 L 7.492188 19.910156 L 0 19.910156 L 0 32 L 24 32 L 24 23.425781 Z M 11.175781 4.761719 L 7.492188 1.246094 L 0 1.246094 L 0 9.535156 L 7.492188 9.535156 L 11.175781 13.050781 L 24 13.050781 L 24 4.761719 Z M 11.175781 4.761719 "/>
<path style=" stroke:none;fill-rule:evenodd;fill:rgb(45.882353%,61.176473%,24.313726%);fill-opacity:1;" d="M 7.492188 9.292969 L 0 9.292969 L 0 17.65625 L 7.492188 17.65625 L 11.175781 21.175781 L 24 21.175781 L 24 12.808594 L 11.175781 12.808594 Z M 11.175781 22.179688 L 7.492188 18.664062 L 0 18.664062 L 0 30.753906 L 24 30.753906 L 24 22.179688 Z M 11.175781 22.179688 "/>
<path style=" stroke:none;fill-rule:evenodd;fill:rgb(100%,100%,100%);fill-opacity:1;" d="M 16.523438 26.371094 L 17.789062 25.074219 L 20.339844 27.683594 L 19.074219 28.980469 Z M 17.835938 27.710938 L 21.921875 23.53125 L 23.167969 24.804688 L 19.082031 28.980469 Z M 16.523438 17.003906 L 17.792969 15.707031 L 20.34375 18.316406 L 19.074219 19.613281 Z M 17.835938 18.339844 L 21.925781 14.164062 L 23.167969 15.4375 L 19.082031 19.613281 Z M 17.835938 18.339844 "/>
<path style=" stroke:none;fill-rule:evenodd;fill:rgb(45.882353%,61.176473%,24.313726%);fill-opacity:1;" d="M 11.175781 3.515625 L 7.492188 0 L 0 0 L 0 8.289062 L 7.492188 8.289062 L 11.175781 11.804688 L 24 11.804688 L 24 3.515625 Z M 11.175781 3.515625 "/>
<path style=" stroke:none;fill-rule:evenodd;fill:rgb(100%,100%,100%);fill-opacity:1;" d="M 17.179688 8.929688 L 21.269531 4.753906 L 22.511719 6.023438 L 18.425781 10.203125 Z M 17.179688 6.019531 L 18.421875 4.75 L 22.507812 8.925781 L 21.265625 10.199219 Z M 17.179688 6.019531 "/>
</g>
</svg>

<svg role="img" viewBox="0 0 24 32" xmlns="http://www.w3.org/2000/svg"><path d="M7.492 10.54H0v8.362h7.492l3.684 3.52H24v-8.367H11.176Zm3.684 12.886L7.492 19.91H0V32h24v-8.574Zm0-18.664L7.492 1.246H0v8.29h7.492l3.684 3.515H24V4.76Zm0 0" style="stroke:none;fill-rule:evenodd;fill:rgb(29.411766%,38.039216%,17.254902%);fill-opacity:1"/><path d="M7.492 9.293H0v8.363h7.492l3.684 3.52H24v-8.367H11.176Zm3.684 12.887-3.684-3.516H0v12.09h24V22.18Zm0 0" style="stroke:none;fill-rule:evenodd;fill:rgb(45.882353%,61.176473%,24.313726%);fill-opacity:1"/><path d="m16.523 26.371 1.266-1.297 2.55 2.61-1.265 1.296Zm1.313 1.339 4.086-4.179 1.246 1.274-4.086 4.175Zm-1.313-10.706 1.27-1.297 2.55 2.61-1.269 1.296Zm1.313 1.336 4.09-4.176 1.242 1.274-4.086 4.175Zm0 0" style="stroke:none;fill-rule:evenodd;fill:rgb(100%,100%,100%);fill-opacity:1"/><path d="M11.176 3.516 7.492 0H0v8.29h7.492l3.684 3.515H24v-8.29Zm0 0" style="stroke:none;fill-rule:evenodd;fill:rgb(45.882353%,61.176473%,24.313726%);fill-opacity:1"/><path d="m17.18 8.93 4.09-4.176 1.242 1.27-4.086 4.18Zm0-2.91 1.242-1.27 4.086 4.176-1.242 1.273Zm0 0" style="stroke:none;fill-rule:evenodd;fill:rgb(100%,100%,100%);fill-opacity:1"/></svg>
